images_sukapura_svg/cmd/32/symbolshapes.right-bracket.svg

<svg viewBox="0 0 32 32" xmlns="http://www.w3.org/2000/svg"><path d="m16 3c1.1045 0 2 .8954 2 2v2 19 1c0 1.1045-.748608 2-2 2h-2v-1h2c.5523 0 1-.4477 1-1v-1-16-4.375-.625c0-.5865223-.539319-1-1-1h-1-.71875-.28125v-1h1z" fill="#0a84ff"/></svg>

<?xml version="1.0" encoding="UTF-8" standalone="no"?>
<svg
   xmlns:dc="http://purl.org/dc/elements/1.1/"
   xmlns:cc="http://creativecommons.org/ns#"
   xmlns:rdf="http://www.w3.org/1999/02/22-rdf-syntax-ns#"
   xmlns:svg="http://www.w3.org/2000/svg"
   xmlns="http://www.w3.org/2000/svg"
   xmlns:sodipodi="http://sodipodi.sourceforge.net/DTD/sodipodi-0.dtd"
   xmlns:inkscape="http://www.inkscape.org/namespaces/inkscape"
   viewBox="0 0 32 32"
   version="1.1"
   id="svg4"
   sodipodi:docname="symbolshapes.right-bracket.svg"
   inkscape:export-filename="D:\Rizmut\libreoffice-style-sukapura-master\images_sukapura\cmd\32\symbolshapes.left-bracket.png"
   inkscape:export-xdpi="96"
   inkscape:export-ydpi="96"
   inkscape:version="0.92.3 (2405546, 2018-03-11)">
  <metadata
     id="metadata10">
    <rdf:RDF>
      <cc:Work
         rdf:about="">
        <dc:format>image/svg+xml</dc:format>
        <dc:type
           rdf:resource="http://purl.org/dc/dcmitype/StillImage" />
        <dc:title></dc:title>
      </cc:Work>
    </rdf:RDF>
  </metadata>
  <defs
     id="defs8">
    <linearGradient
       gradientTransform="translate(-43.864407,-23.254237)"
       id="a"
       gradientUnits="userSpaceOnUse"
       x1="12"
       x2="12"
       y1="21.5"
       y2="2.5">
      <stop
         offset="0"
         stop-color="#e5eefc"
         id="stop2" />
      <stop
         offset="1"
         stop-color="#fcfdff"
         id="stop4" />
    </linearGradient>
  </defs>
  <sodipodi:namedview
     pagecolor="#ffffff"
     bordercolor="#666666"
     borderopacity="1"
     objecttolerance="10"
     gridtolerance="10"
     guidetolerance="10"
     inkscape:pageopacity="0"
     inkscape:pageshadow="2"
     inkscape:window-width="1366"
     inkscape:window-height="716"
     id="namedview6"
     showgrid="false"
     inkscape:zoom="7.375"
     inkscape:cx="-3.3220339"
     inkscape:cy="16"
     inkscape:window-x="-8"
     inkscape:window-y="-8"
     inkscape:window-maximized="1"
     inkscape:current-layer="svg4" />
  <path
     d="m 16,3 c 1.1045,0 2,0.8954 2,2 v 2 19 1 c 0,1.1045 -0.748608,2 -2,2 h -2 v -1 h 2 c 0.5523,0 1,-0.4477 1,-1 V 26 10 5.625 5 C 17,4.4134777 16.460681,4 16,4 H 15 14.28125 14 V 3 h 1 z"
     id="path2"
     style="fill:#0a84ff;fill-opacity:1"
     inkscape:connector-curvature="0" />
</svg>
